public/twitter.svg

<?xml version="1.0" encoding="utf-8"?><!-- Uploaded to: SVG Repo, www.svgrepo.com, Generator: SVG Repo Mixer Tools -->
<svg width="800px" height="800px" viewBox="0 0 48 48" fill="none" xmlns="http://www.w3.org/2000/svg">
<circle cx="24" cy="24" r="20" fill="#1DA1F2"/>
<path fill-rule="evenodd" clip-rule="evenodd" d="M36 16.3086C35.1177 16.7006 34.1681 16.9646 33.1722 17.0838C34.1889 16.4742 34.9697 15.5095 35.3368 14.36C34.3865 14.9247 33.3314 15.3335 32.2107 15.5551C31.3123 14.5984 30.0316 14 28.6165 14C25.8975 14 23.6928 16.2047 23.6928 18.9237C23.6928 19.3092 23.7368 19.6852 23.8208 20.046C19.7283 19.8412 16.1005 17.8805 13.6719 14.9015C13.2479 15.6287 13.0055 16.4742 13.0055 17.3766C13.0055 19.0845 13.8735 20.5916 15.1958 21.4747C14.3878 21.4491 13.6295 21.2275 12.9647 20.8587V20.9203C12.9647 23.3066 14.663 25.296 16.9141 25.7496C16.5013 25.8616 16.0661 25.9224 15.6174 25.9224C15.2998 25.9224 14.991 25.8912 14.6902 25.8336C15.3166 27.7895 17.1357 29.2134 19.2899 29.2534C17.6052 30.5733 15.4822 31.3612 13.1751 31.3612C12.7767 31.3612 12.3848 31.338 12 31.2916C14.1791 32.6884 16.7669 33.5043 19.5475 33.5043C28.6037 33.5043 33.5562 26.0016 33.5562 19.4956C33.5562 19.282 33.5522 19.0693 33.5418 18.8589C34.5049 18.1629 35.34 17.2958 36 16.3086Z" fill="white"/>
</svg>

<svg width="800" height="800" viewBox="0 0 48 48" fill="none" xmlns="http://www.w3.org/2000/svg"><circle cx="24" cy="24" r="20" fill="#1DA1F2"/><path fill-rule="evenodd" clip-rule="evenodd" d="M36 16.309a9.83 9.83 0 0 1-2.828.775 4.936 4.936 0 0 0 2.165-2.724 9.862 9.862 0 0 1-3.126 1.195 4.924 4.924 0 0 0-8.39 4.49 13.976 13.976 0 0 1-10.15-5.144 4.898 4.898 0 0 0-.665 2.476c0 1.707.867 3.215 2.19 4.098a4.908 4.908 0 0 1-2.231-.616v.061a4.93 4.93 0 0 0 3.95 4.83 4.949 4.949 0 0 1-2.225.084 4.93 4.93 0 0 0 4.6 3.42A9.881 9.881 0 0 1 12 31.291a13.938 13.938 0 0 0 7.547 2.212c9.057 0 14.01-7.502 14.01-14.008 0-.214-.005-.427-.015-.637A10.03 10.03 0 0 0 36 16.309Z" fill="#fff"/></svg>
